icons/rc.svg

<svg xmlns="http://www.w3.org/2000/svg" viewBox="0 0 32 32"><path fill="#0288d1" d="M4 28V8H2v21.5a.5.5 0 0 0 .5.5H24v-2Z"/><path fill="#0288d1" d="M29.5 2h-21a.5.5 0 0 0-.5.5v21a.5.5 0 0 0 .5.5h21a.5.5 0 0 0 .5-.5v-21a.5.5 0 0 0-.5-.5ZM26 8.04a3.438 3.438 0 0 0-.56-.04H21a5 5 0 0 0 0 10h4.44a3.431 3.431 0 0 0 .56-.04V22h-5a9 9 0 0 1 0-18h5Z"/></svg>

<svg xmlns="http://www.w3.org/2000/svg" viewBox="0 0 32 32">
  <path d="M4,28V8H2V29.5a.5.5,0,0,0,.5.5H24V28Z" style="fill: #0288d1"/>
  <path d="M29.5,2H8.5a.5.5,0,0,0-.5.5v21a.5.5,0,0,0,.5.5h21a.5.5,0,0,0,.5-.5V2.5A.5.5,0,0,0,29.5,2ZM26,8.04A3.43814,3.43814,0,0,0,25.44,8H21a5,5,0,0,0,0,10h4.44a3.43141,3.43141,0,0,0,.56-.04V22H21A9,9,0,0,1,21,4h5Z" style="fill: #0288d1"/>
</svg>
